!!!COM: Palestrina, Giovanni Perluigi da
!!!OPR: Missa Emendemus in melius
!!!OMD: Credo
!!!OTL: Et resurrexit
**kern	**kern	**kern	**kern
*Ibass	*Itenor	*Icalto	*Icant
!Bassus	!Tenor	!Altus	!Cantus
*clefF4	*clefGv2	*clefG2	*clefG2
*k[b-]	*k[b-]	*k[b-]	*k[b-]
*G:dor	*G:dor	*G:dor	*G:dor
*M3/2	*M3/2	*M3/2	*M3/2
=73	=73	=73	=73
2D	2F#	2d	2a
2D	2F#	2d	2a
2D	2F#	2d	2b
=74	=74	=74	=74
1C	1G	1e	1cc
2F	2A	2f	2cc
=75	=75	=75	=75
2.BB-	2.B-	2.f	2.dd
4BB-	4B-	4f	4cc
2AA	2c	2f	2cc
=76	=76	=76	=76
4BB-	1d	1.f	2b-
4C	.	.	.
4D	.	.	4a
4E	.	.	4g
2F	2c	.	2a
=77	=77	=77	=77
1BB-	1B-	2f	2b-
.	.	2d	2dd
2r	2A	2e	2cc
=78	=78	=78	=78
1r	2G	2g	2b-
.	2D	2f	2.a
2r	4D	2e	.
.	4E	.	4g
=79	=79	=79	=79
1r	4F	1d	2f
.	4G	.	.
.	1A	.	1e
2r	.	2c#	.
=80	=80	=80	=80
2r	2D	2d	2d
2D	2r	2d	2r
2E	2r	2c	2r
=81	=81	=81	=81
2F	1r	2A	1r
2G	.	2B-	.
2A	2r	2c	2r
=82	=82	=82	=82
2.B-	2r	4d	2r
.	.	4c	.
.	2r	4d	2r
4G	.	4e	.
2A	2c	2f	2cc
=83	=83	=83	=83
1G	2d	1g	2b-
.	2e-	.	2g
2r	[2d	2r	2b-
=84	=84	=84	=84
2r	4d]	2r	2a
.	4c	.	.
2r	2B-	2r	2g
2D	2A	2d	2f#
=85	=85	=85	=85
2E-	1G	2B-	1g
2C	.	2c	.
[2D	2r	2B-	2r
=86	=86	=86	=86
4D]	2r	2A	2r
4C	.	.	.
2BB-	2r	2G	2r
2AA	2A	2F#	2a
=87	=87	=87	=87
1GG	2d	1G	2b-
.	2B-	.	2g
2r	2c	2r	[2a
=88	=88	=88	=88
2r	2d	2r	4a]
.	.	.	4g
2r	2d	2r	2f
2A	2c#	2a	2e
=89	=89	=89	=89
2B-	2d	2f	2d
2G	2B-	2g	2r
[2A	[2c	2f	2r
=90	=90	=90	=90
4A]	4c]	2e	2e
4G	4B-	.	.
2F	2A	2d	2f
2E	2G	2c#	2g
=91	=91	=91	=91
1.D	2.A	1.d	2.f#
.	4A	.	4f#
.	2A	.	2f#
=92	=92	=92	=92
1G	1B-	1d	1g
2G	2B-	2d	2g
=93	=93	=93	=93
2F	2c	2f	2.a
2D	2d	2f	.
.	.	.	4b-
2C	2e-	2g	2cc
=94	=94	=94	=94
2D	2d	2f	2b-
2.F	2.c	2.f	2.a
4G	4B-	4e-	4g
=95	=95	=95	=95
2E-	2G	2c	1g
1D	1A	1d	.
.	.	.	2f#
=96	=96	=96	=96
1GG	1B	1d	1g
2r	2r	2r	2r
*-	*-	*-	*-
!!!CDT: 1525/^1526/-1594/2/2
!!!OCY: Italia
!!!AGN: Mass (Parody)
!!!AST: renaissance, vocal
!!!ASW: Antiphon
!!!PWK: Masses, Book 7
!!!RNB: Cadence finals: D
!!!YOR: Le Opere Complete, v. 23, p. 61
!!!YOO: Rome, Italy: Fratelli Scalera
!!!END: 1992//
!!!EED: John Miller
!!!YEC: Copyright 2000, John Miller
!!!YEN: United States of America
!!!YEM: Rights to all derivative electronic formats reserved.
!!!YEM: Refer to licensing agreement for further details.
!!!YEM: This file must be accompanied by the licensing agreement.
!!!YEM: A copy of the licensing agreement may be found at http://www.music-cog.ohio-state.edu/HumdrumDatabases/Palestrina/license.txt
!!!EMD: converted to Humdrum by Bret Aarden
